;FLAVOR:UltiGCode
;TIME:2162
;MATERIAL:1815
;MATERIAL2:0
;NOZZLE_DIAMETER:0.4

;Generated with Cura_SteamEngine 2.1.2
;LAYER_COUNT:113
;LAYER:0
M107
G10
G0 F7200.000000 X39.881 Y51.611 Z0.300
G0 X39.673 Y51.773
;TYPE:SKIRT
G11
G1 F1800.000 X39.881 Y51.611 E0.03164
G1 X40.116 Y51.467 E0.06471
G1 X40.371 Y51.322 E0.09991
G1 X40.395 Y51.309 E0.10319
G1 X40.581 Y51.229 E0.12748
G1 X40.844 Y51.124 E0.16147
G1 X41.347 Y50.989 E0.22396
G1 X41.499 Y50.953 E0.24271
G1 X41.613 Y50.929 E0.25669
G1 X42.092 Y50.843 E0.31509
G1 X66.109 Y46.807 E3.23754
G1 X67.025 Y46.667 E3.34873
G1 X67.334 Y46.633 E3.38604
G1 X68.091 Y46.575 E3.47714
G1 X68.114 Y46.574 E3.47991
G1 X68.886 Y46.566 E3.57255
G1 X69.680 Y46.610 E3.66798
G1 X70.468 Y46.705 E3.76322
G1 X70.485 Y46.708 E3.76529
G1 X71.184 Y46.839 E3.85063
G1 X72.013 Y47.051 E3.95332
G1 X72.711 Y47.280 E4.04147
G1 X73.467 Y47.584 E4.13925
G1 X73.511 Y47.603 E4.14500
G1 X74.117 Y47.894 E4.22567
G1 X74.122 Y47.896 E4.22631
G1 X74.884 Y48.326 E4.33131
G1 X75.475 Y48.712 E4.41602
G1 X75.496 Y48.727 E4.41911
G1 X76.149 Y49.218 E4.51715
G1 X76.179 Y49.241 E4.52169
G1 X76.692 Y49.682 E4.60287
G1 X76.712 Y49.700 E4.60610
G1 X77.309 Y50.285 E4.70640
G1 X77.310 Y50.286 E4.70657
G1 X77.795 Y50.826 E4.79367
G1 X78.310 Y51.483 E4.89384
G1 X78.723 Y52.087 E4.98165
G1 X78.758 Y52.142 E4.98947
G1 X79.118 Y52.750 E5.07426
G1 X79.510 Y53.524 E5.17837
G1 X79.789 Y54.179 E5.26381
G1 X79.803 Y54.216 E5.26855
G1 X80.052 Y54.924 E5.35861
G1 X80.072 Y54.988 E5.36666
G1 X80.264 Y55.675 E5.45226
G1 X80.271 Y55.701 E5.45549
G1 X80.431 Y56.459 E5.54846
G1 X80.545 Y57.262 E5.64578
G1 X80.605 Y58.047 E5.74026
G1 X80.612 Y58.790 E5.82942
G1 X80.567 Y59.618 E5.92893
G1 X80.564 Y59.646 E5.93231
G1 X80.481 Y60.333 E6.01535
G1 X80.471 Y60.400 E6.02347
G1 X80.337 Y61.115 E6.11077
G1 X80.129 Y61.925 E6.21112
G1 X79.900 Y62.626 E6.29962
G1 X79.890 Y62.655 E6.30330
G1 X79.606 Y63.362 E6.39473
G1 X79.592 Y63.392 E6.39870
G1 X79.264 Y64.076 E6.48973
G1 X78.868 Y64.778 E6.58645
G1 X78.862 Y64.789 E6.58795
G1 X78.466 Y65.395 E6.67482
G1 X78.451 Y65.416 E6.67792
G1 X77.960 Y66.069 E6.77596
G1 X77.937 Y66.099 E6.78049
G1 X77.496 Y66.612 E6.86167
G1 X77.478 Y66.632 E6.86490
G1 X76.893 Y67.230 E6.96529
G1 X76.868 Y67.254 E6.96945
G1 X76.375 Y67.696 E7.04890
G1 X75.693 Y68.232 E7.15299
G1 X75.064 Y68.661 E7.24436
G1 X75.040 Y68.676 E7.24775
G1 X74.413 Y69.047 E7.33518
G1 X74.405 Y69.052 E7.33631
G1 X73.695 Y69.411 E7.43178
G1 X73.669 Y69.423 E7.43522
G1 X73.001 Y69.709 E7.52242
G1 X72.177 Y69.997 E7.62716
G1 X71.499 Y70.186 E7.71163
G1 X71.336 Y70.225 E7.73174
G1 X70.827 Y70.334 E7.79420
G1 X70.363 Y70.418 E7.85079
G1 X68.873 Y70.609 E8.03105
G1 X68.557 Y70.639 E8.06914
G1 X67.557 Y70.682 E8.18925
G1 X67.244 Y70.685 E8.22681
G1 X66.714 Y70.666 E8.29045
G1 X66.673 Y70.664 E8.29538
G1 X65.772 Y70.575 E8.40403
G1 X65.627 Y70.555 E8.42159
G1 X65.436 Y70.525 E8.44479
G1 X64.984 Y70.441 E8.49996
G1 X64.458 Y70.327 E8.56455
G1 X64.211 Y70.265 E8.59511
G1 X63.669 Y70.113 E8.66266
G1 X63.349 Y70.012 E8.70292
G1 X62.692 Y69.786 E8.78630
G1 X62.524 Y69.725 E8.80774
G1 X59.851 Y68.800 E9.14717
G1 X57.153 Y67.951 E9.48658
G1 X54.432 Y67.179 E9.82599
G1 X51.691 Y66.484 E10.16531
G1 X48.931 Y65.866 E10.50472
G1 X46.154 Y65.327 E10.84418
G1 X42.924 Y64.802 E11.23686
G1 X42.684 Y64.767 E11.26597
G1 X42.371 Y64.712 E11.30410
G1 X42.145 Y64.666 E11.33178
G1 X42.143 Y64.665 E11.33205
G1 X42.120 Y64.658 E11.33493
G1 X41.843 Y64.568 E11.36988
G1 X41.600 Y64.481 E11.40085
G1 X41.570 Y64.467 E11.40483
G1 X41.341 Y64.355 E11.43542
G1 X41.125 Y64.241 E11.46473
G1 X41.092 Y64.222 E11.46930
G1 X40.860 Y64.064 E11.50298
G1 X40.637 Y63.903 E11.53598
G1 X40.637 Y63.902 E11.53610
G1 X40.405 Y63.691 E11.57374
G1 X40.229 Y63.521 E11.60310
G1 X40.221 Y63.512 E11.60454
G1 X40.218 Y63.510 E11.60498
G1 X40.183 Y63.469 E11.61145
G1 X40.062 Y63.322 E11.63429
G1 X39.871 Y63.077 E11.67157
G1 X39.708 Y62.811 E11.70901
G1 X39.591 Y62.606 E11.73733
G1 X39.456 Y62.294 E11.77813
G1 X39.379 Y62.098 E11.80340
G1 X39.265 Y61.676 E11.85585
G1 X39.216 Y61.468 E11.88150
G1 X39.180 Y61.292 E11.90305
G1 X39.116 Y60.935 E11.94658
G1 X38.326 Y56.236 E12.51837
G1 X38.220 Y55.549 E12.60178
G1 X38.199 Y55.378 E12.62246
G1 X38.167 Y54.986 E12.66966
G1 X38.176 Y54.717 E12.70195
G1 X38.193 Y54.429 E12.73657
G1 X38.197 Y54.400 E12.74009
G1 X38.239 Y54.159 E12.76944
G1 X38.299 Y53.864 E12.80557
G1 X38.385 Y53.601 E12.83877
G1 X38.471 Y53.360 E12.86948
G1 X38.481 Y53.334 E12.87282
G1 X38.610 Y53.072 E12.90787
G1 X38.728 Y52.847 E12.93835
G1 X38.729 Y52.846 E12.93852
G1 X38.910 Y52.580 E12.97713
G1 X39.058 Y52.375 E13.00747
G1 X39.066 Y52.366 E13.00892
G1 X39.265 Y52.146 E13.04452
G1 X39.424 Y51.982 E13.07193
G1 X39.442 Y51.964 E13.07498
G1 X39.673 Y51.773 E13.11095
G0 F7200.00000 X39.770 Y52.213
G1 F1800.000 X39.809 Y52.176 E13.11740
G1 X40.235 Y51.861 E13.18098
G1 X40.256 Y51.847 E13.18401
G1 X40.668 Y51.628 E13.24000
G1 X40.725 Y51.600 E13.24762
G1 X41.201 Y51.433 E13.30815
G1 X41.239 Y51.421 E13.31293
G1 X42.564 Y51.170 E13.47476
G1 X66.154 Y47.205 E16.34527
G1 X67.075 Y47.064 E16.45708
G1 X67.414 Y47.027 E16.49800
G1 X68.043 Y46.979 E16.57370
G1 X68.119 Y46.975 E16.58283
G1 X68.852 Y46.966 E16.67080
G1 X69.676 Y47.011 E16.76982
G1 X69.701 Y47.013 E16.77283
G1 X70.337 Y47.090 E16.84971
G1 X70.365 Y47.094 E16.85310
G1 X71.122 Y47.235 E16.94551
G1 X71.864 Y47.425 E17.03742
G1 X72.596 Y47.664 E17.12982
G1 X73.286 Y47.941 E17.21905
G1 X73.980 Y48.273 E17.31137
G1 X74.626 Y48.636 E17.40029
G1 X75.271 Y49.057 E17.49271
G1 X75.289 Y49.070 E17.49538
G1 X75.879 Y49.512 E17.58384
G1 X76.437 Y49.991 E17.67209
G1 X77.011 Y50.552 E17.76840
G1 X77.482 Y51.077 E17.85304
G1 X77.498 Y51.096 E17.85602
G1 X77.965 Y51.689 E17.94660
G1 X78.396 Y52.319 E18.03820
G1 X78.784 Y52.974 E18.12955
G1 X79.127 Y53.649 E18.22041
G1 X79.428 Y54.355 E18.31251
G1 X79.679 Y55.066 E18.40299
G1 X79.882 Y55.790 E18.49322
G1 X80.032 Y56.500 E18.58030
G1 X80.147 Y57.301 E18.67741
G1 X80.205 Y58.054 E18.76803
G1 X80.205 Y58.055 E18.76815
G1 X80.213 Y58.758 E18.85252
G1 X80.167 Y59.593 E18.95287
G1 X80.084 Y60.287 E19.03675
G1 X80.077 Y60.331 E19.04209
G1 X79.949 Y61.019 E19.12607
G1 X79.946 Y61.032 E19.12767
G1 X79.754 Y61.783 E19.22069
G1 X79.518 Y62.507 E19.31207
G1 X79.237 Y63.207 E19.40258
G1 X78.904 Y63.902 E19.49506
G1 X78.902 Y63.906 E19.49560
G1 X78.548 Y64.537 E19.58242
G1 X78.121 Y65.191 E19.67615
G1 X78.108 Y65.209 E19.67881
G1 X77.666 Y65.799 E19.76728
G1 X77.181 Y66.365 E19.85672
G1 X77.173 Y66.373 E19.85808
G1 X76.643 Y66.916 E19.94913
G1 X76.092 Y67.411 E20.03801
G1 X75.485 Y67.888 E20.13065
G1 X74.847 Y68.325 E20.22345
G1 X74.210 Y68.702 E20.31228
G1 X74.202 Y68.707 E20.31341
G1 X73.527 Y69.049 E20.40421
G1 X73.521 Y69.052 E20.40502
G1 X72.875 Y69.328 E20.48932
G1 X72.057 Y69.616 E20.59338
G1 X71.431 Y69.790 E20.67135
G1 X71.262 Y69.831 E20.69222
G1 X70.738 Y69.943 E20.75652
G1 X70.297 Y70.023 E20.81030
G1 X68.880 Y70.206 E20.98175
G1 X68.508 Y70.241 E21.02659
G1 X67.562 Y70.282 E21.14022
G1 X67.281 Y70.286 E21.17394
G1 X66.742 Y70.267 E21.23866
G1 X65.775 Y70.173 E21.35525
G1 X65.693 Y70.162 E21.36518
G1 X65.505 Y70.132 E21.38802
G1 X65.078 Y70.052 E21.44015
G1 X64.558 Y69.939 E21.50401
G1 X64.274 Y69.868 E21.53914
G1 X63.873 Y69.756 E21.58910
G1 X63.491 Y69.637 E21.63711
G1 X62.784 Y69.393 E21.72686
G1 X62.544 Y69.307 E21.75746
G1 X59.870 Y68.386 E22.09684
G1 X57.171 Y67.540 E22.43625
G1 X54.449 Y66.771 E22.77568
G1 X51.707 Y66.079 E23.11504
G1 X48.946 Y65.465 E23.45445
G1 X46.169 Y64.930 E23.79382
G1 X44.081 Y64.588 E24.04772
G1 X44.082 Y64.585 E24.04810
G1 X43.486 Y64.491 E24.12050
G1 X43.378 Y64.473 E24.13364
G1 X43.347 Y64.469 E24.13739
G1 X42.833 Y64.387 E24.19985
G1 X42.271 Y64.280 E24.26850
G1 X42.211 Y64.267 E24.27587
G1 X41.739 Y64.101 E24.33591
G1 X41.703 Y64.087 E24.34054
G1 X41.277 Y63.861 E24.39841
G1 X41.238 Y63.839 E24.40379
G1 X40.811 Y63.524 E24.46746
G1 X40.798 Y63.513 E24.46950
G1 X40.486 Y63.202 E24.52237
G1 X40.427 Y63.139 E24.53272
G1 X40.136 Y62.746 E24.59141
G1 X40.112 Y62.711 E24.59650
G1 X39.879 Y62.270 E24.65635
G1 X39.853 Y62.216 E24.66354
G1 X39.711 Y61.813 E24.71482
G1 X39.678 Y61.708 E24.72802
G1 X39.434 Y60.409 E24.88663
G1 X38.721 Y56.170 E25.40246
G1 X38.615 Y55.483 E25.48587
G1 X38.597 Y55.338 E25.50340
G1 X38.570 Y54.988 E25.54553
G1 X38.586 Y54.577 E25.59489
G1 X38.593 Y54.476 E25.60704
G1 X38.691 Y53.964 E25.66959
G1 X38.697 Y53.934 E25.67326
G1 X38.839 Y53.531 E25.72454
G1 X38.868 Y53.456 E25.73419
G1 X39.113 Y52.993 E25.79705
G1 X39.131 Y52.961 E25.80145
G1 X39.400 Y52.596 E25.85586
G1 X39.450 Y52.533 E25.86551
G1 X39.770 Y52.213 E25.91982
G0 F7200.00000 X39.901 Y52.633
G1 F1800.000 X40.007 Y52.535 E25.93714
G1 X40.260 Y52.325 E25.97660
G1 X40.282 Y52.308 E25.97993
G1 X40.416 Y52.220 E25.99917
G1 X40.691 Y52.056 E26.03759
G1 X40.704 Y52.049 E26.03937
G1 X40.856 Y51.980 E26.05940
G1 X41.090 Y51.887 E26.08961
G1 X41.634 Y51.742 E26.15717
G1 X41.906 Y51.687 E26.19047
G1 X42.079 Y51.657 E26.21154
G1 X66.218 Y47.600 E29.14885
G1 X67.113 Y47.462 E29.25752
G1 X67.473 Y47.423 E29.30097
G1 X68.070 Y47.377 E29.37282
G1 X68.101 Y47.375 E29.37655
G1 X68.838 Y47.365 E29.46500
G1 X69.595 Y47.406 E29.55597
G1 X70.342 Y47.495 E29.64625
G1 X70.339 Y47.495 E29.64661
G1 X71.026 Y47.623 E29.73047
G1 X71.028 Y47.623 E29.73071
G1 X71.726 Y47.801 E29.81715
G1 X72.447 Y48.035 E29.90811
G1 X73.135 Y48.311 E29.99706
G1 X73.175 Y48.329 E30.00233
G1 X73.744 Y48.601 E30.07801
G1 X74.439 Y48.991 E30.17364
G1 X75.030 Y49.376 E30.25828
G1 X75.624 Y49.821 E30.34735
G1 X75.625 Y49.821 E30.34747
G1 X76.158 Y50.277 E30.43164
G1 X76.705 Y50.810 E30.52329
G1 X77.193 Y51.354 E30.61099
G1 X77.635 Y51.916 E30.69678
G1 X77.657 Y51.945 E30.70115
G1 X78.042 Y52.507 E30.78290
G1 X78.435 Y53.168 E30.87518
G1 X78.752 Y53.792 E30.95917
G1 X79.059 Y54.508 E31.05265
G1 X79.066 Y54.527 E31.05508
G1 X79.282 Y55.139 E31.13296
G1 X79.291 Y55.169 E31.13672
G1 X79.489 Y55.869 E31.22402
G1 X79.642 Y56.590 E31.31246
G1 X79.745 Y57.302 E31.39879
G1 X79.806 Y58.090 E31.49364
G1 X79.807 Y58.113 E31.49640
G1 X79.814 Y58.718 E31.56900
G1 X79.770 Y59.546 E31.66850
G1 X79.688 Y60.234 E31.75165
G1 X79.686 Y60.240 E31.75241
G1 X79.552 Y60.960 E31.84029
G1 X79.380 Y61.635 E31.92388
G1 X79.131 Y62.399 E32.02031
G1 X78.887 Y63.009 E32.09914
G1 X78.551 Y63.713 E32.19275
G1 X78.198 Y64.341 E32.27920
G1 X78.193 Y64.349 E32.28033
G1 X77.802 Y64.950 E32.36637
G1 X77.357 Y65.544 E32.45544
G1 X77.356 Y65.546 E32.45571
G1 X76.901 Y66.078 E32.53971
G1 X76.348 Y66.644 E32.63467
G1 X75.869 Y67.076 E32.71207
G1 X75.858 Y67.084 E32.71370
G1 X75.239 Y67.572 E32.80829
G1 X74.647 Y67.978 E32.89443
G1 X74.026 Y68.347 E32.98112
G1 X73.370 Y68.680 E33.06940
G1 X72.710 Y68.963 E33.15557
G1 X71.982 Y69.220 E33.24821
G1 X71.295 Y69.412 E33.33381
G1 X71.154 Y69.447 E33.35125
G1 X70.700 Y69.544 E33.40696
G1 X70.247 Y69.626 E33.46220
G1 X68.827 Y69.810 E33.63402
G1 X68.459 Y69.844 E33.67837
G1 X67.612 Y69.882 E33.78011
G1 X67.290 Y69.886 E33.81876
G1 X66.763 Y69.868 E33.88203
G1 X66.744 Y69.867 E33.88432
G1 X65.867 Y69.782 E33.99005
G1 X65.782 Y69.770 E34.00035
G1 X65.589 Y69.740 E34.02379
G1 X65.187 Y69.666 E34.07284
G1 X64.636 Y69.546 E34.14051
G1 X64.404 Y69.488 E34.16921
G1 X63.951 Y69.362 E34.22563
G1 X63.618 Y69.258 E34.26749
G1 X62.921 Y69.019 E34.35592
G1 X62.619 Y68.910 E34.39444
G1 X62.617 Y68.914 E34.39498
G1 X62.424 Y68.848 E34.41946
G1 X61.531 Y68.523 E34.53349
G1 X58.847 Y67.632 E34.87286
G1 X56.138 Y66.817 E35.21233
G1 X53.408 Y66.080 E35.55166
G1 X50.658 Y65.419 E35.89106
G1 X47.890 Y64.837 E36.23048
G1 X45.107 Y64.333 E36.56987
G1 X42.812 Y63.979 E36.84853
G1 X42.688 Y63.961 E36.86356
G1 X42.670 Y63.958 E36.86575
G1 X42.526 Y63.929 E36.88338
G1 X42.183 Y63.844 E36.92579
G1 X42.019 Y63.783 E36.94678
G1 X41.720 Y63.656 E36.98577
G1 X41.711 Y63.651 E36.98700
G1 X41.568 Y63.570 E37.00672
G1 X41.297 Y63.400 E37.04511
G1 X41.283 Y63.390 E37.04718
G1 X41.146 Y63.281 E37.06818
G1 X40.901 Y63.067 E37.10722
G1 X40.898 Y63.064 E37.10773
G1 X40.893 Y63.058 E37.10867
G1 X40.793 Y62.949 E37.12642
G1 X40.577 Y62.689 E37.16698
G1 X40.568 Y62.677 E37.16878
G1 X40.490 Y62.559 E37.18575
G1 X40.309 Y62.253 E37.22842
G1 X40.306 Y62.246 E37.22933
G1 X40.235 Y62.088 E37.25012
G1 X40.142 Y61.853 E37.28045
G1 X40.013 Y61.369 E37.34055
G1 X40.001 Y61.316 E37.34707
G1 X39.947 Y61.046 E37.38012
G1 X39.932 Y60.960 E37.39059
G1 X39.110 Y56.074 E37.98515
G1 X39.008 Y55.405 E38.06636
G1 X38.993 Y55.286 E38.08075
G1 X38.992 Y55.271 E38.08256
G1 X38.968 Y54.948 E38.12142
G1 X38.967 Y54.914 E38.12550
G1 X38.974 Y54.742 E38.14616
G1 X38.999 Y54.442 E38.18229
G1 X39.004 Y54.405 E38.18677
G1 X39.034 Y54.255 E38.20512
G1 X39.115 Y53.923 E38.24613
G1 X39.117 Y53.919 E38.24667
G1 X39.122 Y53.904 E38.24857
G1 X39.163 Y53.792 E38.26288
G1 X39.304 Y53.460 E38.30616
G1 X39.309 Y53.451 E38.30740
G1 X39.388 Y53.312 E38.32658
G1 X39.567 Y53.025 E38.36717
G1 X39.578 Y53.011 E38.36931
G1 X39.673 Y52.892 E38.38758
G1 X39.887 Y52.647 E38.42662
G1 X39.900 Y52.633 E38.42891
G1 X39.901 Y52.633 E38.42903
G10
G0 F7200.00000 X40.884 Y53.549
G0 X42.847 Y55.381
G0 X42.879 Y55.404
G0 X42.928 Y55.439
G0 X42.847 Y55.381
;TYPE:WALL-INNER
G11
G1 F1800.000 X67.396 Y51.253 E41.41627
G1 X67.872 Y51.190 E41.47389
G1 X68.377 Y51.155 E41.53463
G1 X68.839 Y51.153 E41.59007
G1 X69.347 Y51.185 E41.65115
G1 X69.812 Y51.244 E41.70740
G1 X70.278 Y51.336 E41.76440
G1 X70.751 Y51.462 E41.82314
G1 X71.233 Y51.623 E41.88412
G1 X71.647 Y51.794 E41.93787
G1 X72.102 Y52.016 E41.99862
G1 X72.512 Y52.251 E42.05533
G1 X72.926 Y52.525 E42.11491
G1 X73.295 Y52.807 E42.17064
G1 X73.674 Y53.137 E42.23094
G1 X74.014 Y53.476 E42.28856
G1 X74.336 Y53.840 E42.34687
G1 X74.631 Y54.224 E42.40498
G1 X74.898 Y54.619 E42.46220
G1 X75.144 Y55.041 E42.52081
G1 X75.364 Y55.486 E42.58038
G1 X75.548 Y55.928 E42.63783
G1 X75.699 Y56.366 E42.69343
G1 X75.833 Y56.861 E42.75497
G1 X75.926 Y57.320 E42.81117
G1 X75.989 Y57.792 E42.86831
G1 X76.023 Y58.296 E42.92893
G1 X76.025 Y58.760 E42.98461
G1 X75.993 Y59.268 E43.04569
G1 X75.934 Y59.729 E43.10146
G1 X75.847 Y60.182 E43.15681
G1 X75.716 Y60.671 E43.21756
G1 X75.559 Y61.140 E43.27691
G1 X75.378 Y61.581 E43.33411
G1 X75.162 Y62.022 E43.39304
G1 X74.927 Y62.432 E43.44975
G1 X74.653 Y62.846 E43.50933
G1 X74.371 Y63.215 E43.56506
G1 X74.041 Y63.594 E43.62536
G1 X73.703 Y63.934 E43.68289
G1 X73.336 Y64.259 E43.74172
G1 X72.964 Y64.545 E43.79802
G1 X72.553 Y64.822 E43.85750
G1 X72.133 Y65.066 E43.91579
G1 X71.703 Y65.280 E43.97343
G1 X71.259 Y65.465 E44.03115
G1 X70.794 Y65.624 E44.09012
G1 X70.314 Y65.753 E44.14976
G1 X69.856 Y65.846 E44.20584
G1 X69.033 Y65.971 E44.30574
G1 X68.315 Y66.052 E44.39244
G1 X67.853 Y66.083 E44.44801
G1 X67.560 Y66.093 E44.48319
G1 X66.996 Y66.085 E44.55087
G1 X66.458 Y66.037 E44.61569
G1 X65.913 Y65.949 E44.68194
G1 X65.381 Y65.828 E44.74741
G1 X64.864 Y65.679 E44.81197
G1 X64.068 Y65.396 E44.91335
G1 X63.092 Y64.989 E45.04025
G1 X61.544 Y64.266 E45.24527
G1 X57.709 Y62.324 E45.76111
G1 X51.140 Y58.861 E46.65222
G1 X43.643 Y60.114 E47.56434
G1 X42.847 Y55.381 E48.14027
G0 F7200.00000 X42.386 Y55.053
;TYPE:WALL-OUTER
G1 F1800.000 X67.340 Y50.857 E51.17679
G1 X67.835 Y50.791 E51.23672
G1 X68.357 Y50.755 E51.29951
G1 X68.854 Y50.753 E51.35915
G1 X69.376 Y50.786 E51.42191
G1 X69.877 Y50.850 E51.48252
G1 X70.378 Y50.948 E51.54378
G1 X70.864 Y51.077 E51.60412
G1 X71.360 Y51.244 E51.66692
G1 X71.820 Y51.433 E51.72660
G1 X72.291 Y51.663 E51.78950
G1 X72.723 Y51.911 E51.84927
G1 X73.155 Y52.197 E51.91144
G1 X73.554 Y52.502 E51.97171
G1 X73.939 Y52.837 E52.03295
G1 X74.310 Y53.206 E52.09574
G1 X74.647 Y53.588 E52.15687
G1 X74.951 Y53.983 E52.21668
G1 X75.236 Y54.406 E52.27789
G1 X75.500 Y54.859 E52.34081
G1 X75.720 Y55.303 E52.40027
G1 X75.922 Y55.787 E52.46321
G1 X76.084 Y56.257 E52.52286
G1 X76.218 Y56.750 E52.58417
G1 X76.322 Y57.263 E52.64698
G1 X76.388 Y57.755 E52.70655
G1 X76.423 Y58.277 E52.76933
G1 X76.425 Y58.775 E52.82909
G1 X76.392 Y59.297 E52.89186
